X: 27
T:Asturias patria querida
M:3/4
L:1/8
Q:170
C:Trad
B:Metodo de Gaita. Dayures
K:D
D |: F2F2 GF/2G/2 | AB A3 A | B2G2 BA/2G/2 |1
AA/2G/2 F3 D :|2 AA/2G/2F2 DD/2D/2 |: BB/2A/2 BB cc/2B 
|
AF/2G/2 A2 BB/2A/2 | GE/2F/2 GG AA/2A/2 |1 BA/2G/2 F2 DD/2D/2 :|2 BA/2G/
2 F4 ||

